modules/hawcons-stroke/icons/icon-99-folder-unlocked.svg

<?xml version="1.0" encoding="UTF-8" standalone="no"?>
<svg width="32px" height="32px" viewBox="0 0 32 32" version="1.1" xmlns="http://www.w3.org/2000/svg" xmlns:xlink="http://www.w3.org/1999/xlink" xmlns:sketch="http://www.bohemiancoding.com/sketch/ns">
    <!-- Generator: Sketch 3.0.3 (7891) - http://www.bohemiancoding.com/sketch -->
    <title>icon 99 folder unlocked</title>
    <desc>Created with Sketch.</desc>
    <defs></defs>
    <g id="Page-1" stroke="none" stroke-width="1" fill="none" fill-rule="evenodd" sketch:type="MSPage">
        <g id="icon-99-folder-unlocked" sketch:type="MSArtboardGroup" fill="#929292">
            <path d="M23,25 L1.99296544,25 C1.44610862,25 1,24.5559546 1,24.0081969 L1,13 L28,13 L28,15.0355428 C27.8366558,15.01212 27.6697139,15 27.5,15 C25.5670034,15 24,16.5625 24,18.4975147 L24,21 C23.4477153,21 23,21.4378814 23,22.0029293 L23,25 L23,25 Z M29,15.3373888 L29,9.99508929 C29,8.8932319 28.1029399,8 26.9941413,8 L15,8 L13,4 L2.00276013,4 C0.896666251,4 0,4.88967395 0,5.991155 L0,24.008845 C0,25.1085295 0.899712682,26 1.99328744,26 L23,26 L23,26.9970707 C23,27.5509732 23.4463114,28 23.9975446,28 L31.0024554,28 C31.553384,28 32,27.5621186 32,26.9970707 L32,22.0029293 C32,21.4490268 31.5573397,21 31.0010434,21 L29,21 L25,21 L25,18.5093004 C25,17.1123657 26.1192881,16 27.5,16 C28.8903379,16 30,17.123452 30,18.5093004 L30,19 L31,19 L31,18.4975147 C31,17.1029808 30.1812117,15.8990709 29,15.3373888 L29,15.3373888 L29,15.3373888 Z M1,12 L1,5.99180311 C1,5.45530558 1.44401481,5 1.99173483,5 L12.4000244,5 L14.3599854,9 L26.9970172,9 C27.5461723,9 28,9.4481055 28,10.0008717 L28,12 L1,12 L1,12 L1,12 Z M24.5034227,22 C24.22539,22 24,22.2148438 24,22.4976988 L24,26.5023012 C24,26.7771727 24.2329025,27 24.5034227,27 L30.4965773,27 C30.77461,27 31,26.7851562 31,26.5023012 L31,22.4976988 C31,22.2228273 30.7670975,22 30.4965773,22 L24.5034227,22 L24.5034227,22 Z" id="folder-unlocked" sketch:type="MSShapeGroup"></path>
        </g>
    </g>
</svg>

<svg width="32" height="32" viewBox="0 0 32 32" xmlns="http://www.w3.org/2000/svg"><path d="M23 25H1.993A.993.993 0 0 1 1 24.008V13h27v2.036a3.497 3.497 0 0 0-4 3.462V21c-.552 0-1 .438-1 1.003V25zm6-9.663V9.995A2 2 0 0 0 26.994 8H15l-2-4H2.003C.897 4 0 4.89 0 5.991V24.01C0 25.109.9 26 1.993 26H23v.997A1 1 0 0 0 23.998 28h7.004c.551 0 .998-.438.998-1.003v-4.994A.998.998 0 0 0 31.001 21H25v-2.49c0-1.398 1.12-2.51 2.5-2.51 1.39 0 2.5 1.123 2.5 2.51V19h1v-.502a3.5 3.5 0 0 0-2-3.16zM1 12V5.992A1 1 0 0 1 1.992 5H12.4l1.96 4h12.637c.55 0 1.003.448 1.003 1v2H1zm23.503 10a.496.496 0 0 0-.503.498v4.004c0 .275.233.498.503.498h5.994a.496.496 0 0 0 .503-.498v-4.004a.505.505 0 0 0-.503-.498h-5.994z" fill="#929292" fill-rule="evenodd"/></svg>
